!!!OTL: Beim Einruecken in's Quartier.
!!!OTL-incipit: LUSTIG IHR LEUTE SOLDATEN SIND DA
!!!COM: Volksweise
!!!ARE: Europa, Mitteleuropa, Deutschland
!!!SCT: F0612
!!!TXL: @@DE
!!!YEM: Copyright 1995, estate of Helmut Schaffrath.
**kern	**text
*ICvox	*
*clefG2	*
*M3/4	*
*k[]	*
*C:	*
=1	=1
!LO:TX:a:t=Für vier Männerſtimmen ohne Begleitung, einſtimmig mit Clavierbegleitung.	!
{4.g	Luſtig,
8e	.
4g	ihr
=2	=2
4.cc/	Leute,
8dd/}	.
{4ee/	Sol-
=3	=3
4dd/	-da-
4gg/	-ten
4gg/	ſind
=4	=4
(>4cc/	da,
4ee/)}	.
{4ee/	Sol-
=5	=5
4dd/	-da-
4gg/	-ten
4b/	ſind
=6	=6
2cc/	da,
4r}	.
=7	=7
{4.g	grüßen
8e	.
4g	euch
=8	=8
4.cc/	ſingend,
8dd/}	.
{4ee/	Juchhei-
=9	=9
4dd/	.
4gg/	-ra-
4gg/	-ſa-
=10	=10
4cc/	-ſa
4ee/}	.
{4ee/	Juch-
=11	=11
(>4dd/	-hei-
4gg/)	-ra-
4b/	-ſa-
=12	=12
2cc/	-ſa!
4r}	.
=13	=13
{4g	ſind
4g	aus
4cc/	dem
=14	=14
4.a	teutſchen
8a	.
4a}	Land,
=15	=15
{4a	wie
4b/	auch
4cc/	gar
=16	=16
4.dd/	wohl
8ee/	bekannt,
4dd/;}	.
=17	=17
{8cc/L	kom-
8bJ	.
8aL	-men
8gJ	.
4g	fein
=18	=18
4.cc/	lu-
8dd/}	-ſtig
{4ee/	ʒu
=19	=19
4dd/	euch
4gg/	in's
4gg/	Quartier,
=20	=20
(>4cc/	.
4ee/)}	.
{4ee/	ʒu
=21	=21
4dd/	euch
4gg/	in's
4b/	Quartier.
=22	=22
2cc/	.
4r}	.
==	==
!!!AGN: Soldaten - Lied
!!!ONB: ESAC (Essen Associative Code) Database: FINK
!!!AMT: simple triple
!!!AIN: vox
!!!EED: Helmut Schaffrath
!!!EEV: 1.0
!!!GTL: Soldaten- und Jaegerlieder
!!Text: Volkslied
!!!source: Musikalischer Hausschatz der Deutschen. Eine Sammlung von über 1000 Liedern und Gesängen mit Singstimmen und Klavierbegleitung. Leipzig, Litterarisches Verlags-Haus.
!!!page: 400
!!!URL-scan: https://www.digitale-sammlungen.de/en/view/bsb11144622?page=375
!!!ENC: Anna Maria Matuszewska
!!!EEV: 2024/08/02
*-	*-